X:82
T:The Sailor's Bonnet
R:reel
D:Michael Coleman
D:Davy Spillane:Shadow Hunter
D:Bothy Band:1975
M:4/4
K:D
A2FA dff2|dfef dBB2|A2FA dffe|dBAG FDDB|
A2FA dff2|afef dBB2|A2FA dffe|dBAG FDD2||
|: a2a2 afdf|afef dBB2|fbba bafa|bfaf feef|
bff2 aff2|afef dBB2|A2FA dffe|1 dBAF ADD2:|2 dBAF ADDB||
